src/assets/selectIcons/cibo_10.svg

<svg xmlns="http://www.w3.org/2000/svg" viewBox="0 0 512 512" style="height: 512px; width: 512px;"><path d="M0 0h512v512H0z" fill="#000" fill-opacity="1"></path><g class="" transform="translate(0,0)" style=""><path d="M415.5 20.2c-8.2 0-17 1.12-25.1 3.28 2.5 11.27 4.2 22.1 4.5 33.29 7 1.62 13.6 4.29 19.7 7.79 1.8 1.03 3.5 2.13 5.2 3.28 10.7-4.95 23-8.62 35.8-11.94 10.9-2.85 22-5.3 32.5-7.54-2.9-1.64-6-3.39-8.6-4.76-9.7-5.02-17.9-7.99-32.6-4.92l-12.3 2.58 2.3-18.36c-5.9-1.81-13.4-2.7-21.4-2.7zm-35.7 52.73c-5.5 0-11.2 1-17.1 3.14-15.5 5.72-32.8 20.21-48.9 49.23-5.8 10.4-11.2 20.3-16.4 29.6h.6c6.2-.1 11.9.7 17.3 2.5 10.9 3.6 19.7 10.6 28.5 19.3l-12.6 12.8c-8-7.9-14.6-12.7-21.5-15-6.2-2.1-13.2-2.4-23.1 0-27.5 50.1-46.4 84.5-64.9 110.1 14 11.9 33.2 16.8 57.8 16.3l.4 18c-26.9.5-51.1-5.1-69.2-20.1-20.8 25.1-43.4 40.8-77.5 56.4 11.7 11.2 30.4 19.7 54.6 25.6l-4.2 17.4c-29-7-53-17.7-67.9-35.3-.2.1-.3.1-.5.2-30.64 12.7-43.76 26.9-47.39 38.8-3.63 11.8.83 23.6 11.55 35 10.73 11.3 27.54 20.9 44.84 25.6 17.3 4.8 34.8 4.4 47.3-1.8 80.8-40.1 127.6-80.6 164.1-129.5 36.6-49 62.7-106.9 100.4-181.4 5.1-10 4.5-23.4-1.2-36.6-5.7-13.21-16.3-25.68-29.1-33.01-8-4.59-16.7-7.26-25.9-7.26zM68.25 451.2c-10.4 9.9-26.58 13.3-43.45 16.6-.29 0-.59.1-.88.1 8.39 1.8 16.27 3.8 22.47 6.2 9 3.5 15.21 10.7 20.57 17.7 3.54-9.7 7.82-18.6 14.79-29.4-4.89-3.4-9.43-7.1-13.5-11.2z" fill="#fff" fill-opacity="1"></path></g></svg>

<?xml version="1.0" encoding="UTF-8" standalone="no"?>
<!DOCTYPE svg PUBLIC "-//W3C//DTD SVG 1.1//EN" "http://www.w3.org/Graphics/SVG/1.1/DTD/svg11.dtd">
<svg width="100%" height="100%" viewBox="0 0 512 512" version="1.1" xmlns="http://www.w3.org/2000/svg" xmlns:xlink="http://www.w3.org/1999/xlink" xml:space="preserve" xmlns:serif="http://www.serif.com/" style="fill-rule:evenodd;clip-rule:evenodd;stroke-linejoin:round;stroke-miterlimit:2;">
    <rect x="0" y="0" width="512" height="512" style="fill-rule:nonzero;"/>
    <g>
        <path d="M415.5,20.2C407.3,20.2 398.5,21.32 390.4,23.48C392.9,34.75 394.6,45.58 394.9,56.77C401.9,58.39 408.5,61.06 414.6,64.56C416.4,65.59 418.1,66.69 419.8,67.84C430.5,62.89 442.8,59.22 455.6,55.9C466.5,53.05 477.6,50.6 488.1,48.36C485.2,46.72 482.1,44.97 479.5,43.6C469.8,38.58 461.6,35.61 446.9,38.68L434.6,41.26L436.9,22.9C431,21.09 423.5,20.2 415.5,20.2ZM379.8,72.93C374.3,72.93 368.6,73.93 362.7,76.07C347.2,81.79 329.9,96.28 313.8,125.3C308,135.7 302.6,145.6 297.4,154.9L298,154.9C304.2,154.8 309.9,155.6 315.3,157.4C326.2,161 335,168 343.8,176.7L331.2,189.5C323.2,181.6 316.6,176.8 309.7,174.5C303.5,172.4 296.5,172.1 286.6,174.5C259.1,224.6 240.2,259 221.7,284.6C235.7,296.5 254.9,301.4 279.5,300.9L279.9,318.9C253,319.4 228.8,313.8 210.7,298.8C189.9,323.9 167.3,339.6 133.2,355.2C144.9,366.4 163.6,374.9 187.8,380.8L183.6,398.2C154.6,391.2 130.6,380.5 115.7,362.9C115.5,363 115.4,363 115.2,363.1C84.56,375.8 71.44,390 67.81,401.9C64.18,413.7 68.64,425.5 79.36,436.9C90.09,448.2 106.9,457.8 124.2,462.5C141.5,467.3 159,466.9 171.5,460.7C252.3,420.6 299.1,380.1 335.6,331.2C372.2,282.2 398.3,224.3 436,149.8C441.1,139.8 440.5,126.4 434.8,113.2C429.1,99.99 418.5,87.52 405.7,80.19C397.7,75.6 389,72.93 379.8,72.93ZM68.25,451.2C57.85,461.1 41.67,464.5 24.8,467.8C24.51,467.8 24.21,467.9 23.92,467.9C32.31,469.7 40.19,471.7 46.39,474.1C55.39,477.6 61.6,484.8 66.96,491.8C70.5,482.1 74.78,473.2 81.75,462.4C76.86,459 72.32,455.3 68.25,451.2Z" style="fill:rgb(253,156,182);fill-rule:nonzero;"/>
    </g>
</svg>
